X:1
T:The Well-Tempered Clavier Part I Praeludium XI
T:BWV 856
T:J. S. Bach
%%score { ( 1 3 ) | 2 }
L:1/8
M:12/8
K:F
V:1 treble nm="Harp"
V:3 treble 
V:2 bass 
V:1
 f/c/A/G/A/c/ F/A/c/_e/d/c/ d/B/F/E/F/B/ D/F/A/c/B/A/ | %1
 B/G/E/D/E/G/ C/E/G/B/A/G/ A/G/F/E/F/A/ C/E/F/A/G/F/ | %2
 A/4=B/4c/4B/4c/4B/4c/4B/4c/4B/4c/4B/4 c/4B/4c/4B/4c/4B/4c/4B/4c/4B/4c/4B/4 c/G/E/D/E/G/ C/E/G/_B/A/G/ | %3
 d/4^c/4=B/4c/4d/4c/4d/4c/4d/4c/4d/4c/4 d/4c/4d/4c/4d/4c/4d/4c/4d/4c/4d/4c/4 d/A/F/E/F/A/ D/F/A/=c/_B/A/ | %4
 B/G/E/D/E/G/ C/E/G/B/A/G/ A/F/D/^C/D/F/ B,/D/F/A/G/F/ | G/E/^C/=B,/C/E/ A,/C/E/G/F/E/ FAd AFD | %6
 GBd BGD G^ce cGE | d/A/F/E/F/A/ D/F/A/c/B/A/ f/d/B/A/B/d/ F/B/d/f/e/d/ | %8
 a/4^g/4=g/4^g/4a/4g/4a/4a/4g/4a/4g/4a/4 g/4a/4g/4a/4g/4a/4g/4a/4g/4a/4g/4a/4 a/e/^c/=B/c/e/ A/c/e/=g/^f/e/ | %9
 e/4^f/4g/4f/4g/4f/4g/4f/4g/4f/4g/4f/4 g/4f/4g/4f/4g/4f/4g/4f/4g/4f/4g/4f/4 g/d/=B/A/B/d/ G/B/d/=f/_e/d/ | %10
 _e/c/A/G/A/c/ F/A/c/e/d/c/ d/B/G/^F/G/B/ _E/G/B/d/c/B/ | %11
 c/A/^F/E/F/A/ D/F/A/c/B/A/ A/4B/4c/4B/4c/4B/4c/4B/4c/4B/4c/4B/4 c/4B/4c/4B/4c/4B/4c/4B/4c/4B/4c/4B/4 | %12
 c/4B/4c/4B/4c/4B/4c/4B/4c/4B/4c/4B/4 c/4B/4c/4B/4c/4B/4c/4B/4c/4B/4c/4B/4 A6- | %13
 A/A/F/E/F/A/ D/F/A/c/B/A/ G/d/B/A/B/d/ G/B/d/f/e/d/ | %14
 e/g/e/d/e/g/ c/e/g/b/a/g/ c'/a/f/e/f/a/ d/f/a/c'/b/a/ | %15
 b/g/e/d/e/g/ c/e/g/b/a/g/ a/f/c/B/c/f/ A/c/_e/g/f/e/ | %16
 e/4d/4e/4d/4e/4d/4e/4d/4e/4d/4e/4d/4 e/4d/4c/B/A/G/F/ Bge cBg | %17
 A/G/F/E/F/A/ D/F/D/B,/G,/E/ F/B,/A,/G,/A,/C/ F,2 z |] %18
V:2
 F,A,C A,F,A, B,DB, F,,2 z | F,G,B, G,E,C, F,A,F, F,,2 z | %2
 F,/D,/=B,,/A,,/B,,/D,/ G,,/B,,/D,/F,/E,/D,/ D,/4E,/4F,/4E,/4F,/4E,/4F,/4E,/4F,/4E,/4F,/4E,/4 F,/4E,/4F,/4E,/4F,/4E,/4F,/4E,/4F,/4E,/4F,/4E,/4 | %3
 G,/E,/^C,/=B,,/C,/E,/ A,,/C,/E,/G,/F,/E,/ E,/4F,/4G,/4F,/4G,/4F,/4G,/4F,/4G,/4F,/4G,/4F,/4 G,/4F,/4G,/4F,/4G,/4F,/4G,/4F,/4G,/4F,/4G,/4F,/4 | %4
 G,B,G, E,C,E, F,A,F, D,B,,D, | E,G,E, ^C,A,,C, D,/A,,/F,,/E,,/F,,/A,,/ D,,/F,,/A,,/=C,/B,,/A,,/ | %6
 D,/B,,/G,,/^F,,/G,,/B,,/ D,,/G,,/B,,/D,/^C,/=B,,/ C,/_B,,/G,,/F,,/G,,/B,,/ D,,/G,,/C,/E,/D,/C,/ | %7
 D,F,A, F,D,F, D,,F,,B,, D,2 z | %8
 D/=B,/^G,/^F,/G,/B,/ E,/G,/B,/D/^C/B,/ B,/4C/4D/4C/4D/4C/4D/4C/4D/4C/4D/4C/4 D/4C/4D/4C/4D/4C/4D/4C/4D/4C/4D/4C/4 | %9
 C/A,/^F,/E,/F,/A,/ D,/F,/A,/C/=B,/A,/ A,/4B,/4C/4B,/4C/4B,/4C/4B,/4C/4B,/4C/4B,/4 C/4B,/4C/4B,/4C/4B,/4C/4B,/4C/4B,/4C/4B,/4 | %10
 C_EC A,F,A, B,DB, G,_E,G, | A,CA, ^F,D,F, G,/D,/B,,/A,,/B,,/D,/ G,,/B,,/D,/=F,/E,/D,/ | %12
 C,/G,,/E,,/D,,/E,,/G,,/ C,,/G,,/C,/E,/D,/C,/ F,/C,/A,,/G,,/A,,/C,/ F,,/C,/F,/A,/G,/F,/ | %13
 C/4B,/4C/4B,/4C/4B,/4C/4B,/4C/4B,/4C/4B,/4 C/4B,/4C/4B,/4C/4B,/4C/4B,/4C/4B,/4C/4B,/4 C/4B,/4C/4B,/4C/4B,/4C/4B,/4C/4B,/4C/4B,/4 C/4B,/4C/4B,/4C/4B,/4C/4B,/4C/4B,/4C/4B,/4 | %14
 C/4B,/4C/4B,/4C/4B,/4C/4B,/4C/4B,/4C/4B,/4 C/4B,/4C/4B,/4C/4B,/4C/4B,/4C/4B,/4C/4B,/4 A,CA, F,D,F, | %15
 G,B,G, E,C,E, F,/C,/A,,/G,,/A,,/C,/ F,,/A,,/C,/_E,/D,/C,/ | %16
 F,/D,/B,,/A,,/B,,/D,/ F,,/B,,/D,/F,/E,/D,/ E,/C,/B,,/A,,/B,,/E,/ G,,/B,,/E,/G,/F,/E,/ | %17
 F,A,,D, C,/4B,,/4C,/4B,,/4C,/4B,,/4A,,/4B,,/4C, F,,2 z z/ C,/A,,/C,/F,, |] %18
V:3
 x12 | x12 | x12 | x12 | x12 | x12 | x12 | x12 | x12 | x12 | x12 | x12 | %12
 E6 F/4_E/4D/4E/4F/4E/4F/4E/4F/4E/4F/4E/4 F/4E/4F/4E/4F/4E/4F/4E/4F/4E/4F/4E/4 | D z z2 z8 | x12 | %15
 x12 | x12 | x12 |] %18

